src/assets/images/amex.svg

<?xml version="1.0" encoding="UTF-8"?>
<svg width="45px" height="36px" viewBox="0 0 45 36" version="1.1" xmlns="http://www.w3.org/2000/svg" xmlns:xlink="http://www.w3.org/1999/xlink">
    <!-- Generator: Sketch 56.3 (81716) - https://sketch.com -->
    <title>AMEX</title>
    <desc>Created with Sketch.</desc>
    <g id="Page-1" stroke="none" stroke-width="1" fill="none" fill-rule="evenodd">
        <g id="AMEX" fill-rule="nonzero">
            <path d="M44.9,19.8620935 L44.9,0.92 L0,0.92 L0,35.92 L44.9,35.92 L44.9,25.7084187 C44.8,25.7084187 44.9,19.8620935 44.9,19.8620935" id="Path" fill="#006FCF"></path>
            <path d="M39.4,17.82 L42.8,17.82 L42.8,9.92 L39.1,9.92 L39.1,11.02 L38.4,9.92 L35.2,9.92 L35.2,11.32 L34.6,9.92 L28.7,9.92 C28.5,9.92 28.3,10.02 28.1,10.02 C27.9,10.02 27.8,10.12 27.6,10.22 C27.4,10.32 27.3,10.32 27.1,10.42 L27.1,9.92 L10.2,9.92 L9.7,11.22 L9.2,9.92 L5.2,9.92 L5.2,11.32 L4.6,9.92 L1.4,9.92 L0,13.32 L0,17.82 L2.3,17.82 L2.7,16.72 L3.5,16.72 L3.9,17.82 L21.5,17.82 L21.5,16.82 L22.2,17.82 L27.1,17.82 L27.1,17.22 C27.2,17.32 27.4,17.32 27.5,17.42 C27.6,17.52 27.8,17.52 27.9,17.62 C28.1,17.72 28.3,17.72 28.5,17.72 L32.1,17.72 L32.5,16.62 L33.3,16.62 L33.7,17.72 L38.6,17.72 L38.6,16.72 L39.4,17.82 L39.4,17.82 Z M44.9,27.82 L44.9,20.42 L17.4,20.42 L16.7,21.42 L16,20.42 L8,20.42 L8,28.32 L16,28.32 L16.7,27.32 L17.4,28.32 L22.4,28.32 L22.4,26.62 L22.2,26.62 C22.9,26.62 23.5,26.52 24,26.32 L24,28.42 L27.6,28.42 L27.6,27.42 L28.3,28.42 L43.2,28.42 C43.8,28.22 44.4,28.12 44.9,27.82 L44.9,27.82 Z" id="Shape" fill="#FFFFFF"></path>
            <path d="M43.2,25.92 L40.5,25.92 L40.5,27.02 L43.1,27.02 C44.2,27.02 44.9,26.32 44.9,25.32 C44.9,24.32 44.3,23.82 43.3,23.82 L42.1,23.82 C41.8,23.82 41.6,23.62 41.6,23.32 C41.6,23.02 41.8,22.82 42.1,22.82 L44.4,22.82 L44.9,21.72 L42.2,21.72 C41.1,21.72 40.4,22.42 40.4,23.32 C40.4,24.32 41,24.82 42,24.82 L43.2,24.82 C43.5,24.82 43.7,25.02 43.7,25.32 C43.8,25.72 43.6,25.92 43.2,25.92 L43.2,25.92 Z M38.3,25.92 L35.6,25.92 L35.6,27.02 L38.2,27.02 C39.3,27.02 40,26.32 40,25.32 C40,24.32 39.4,23.82 38.4,23.82 L37.2,23.82 C36.9,23.82 36.7,23.62 36.7,23.32 C36.7,23.02 36.9,22.82 37.2,22.82 L39.5,22.82 L40,21.72 L37.3,21.72 C36.2,21.72 35.5,22.42 35.5,23.32 C35.5,24.32 36.1,24.82 37.1,24.82 L38.3,24.82 C38.6,24.82 38.8,25.02 38.8,25.32 C38.9,25.72 38.6,25.92 38.3,25.92 L38.3,25.92 Z M34.8,22.72 L34.8,21.62 L30.6,21.62 L30.6,26.92 L34.8,26.92 L34.8,25.82 L31.8,25.82 L31.8,24.72 L34.7,24.72 L34.7,23.62 L31.8,23.62 L31.8,22.62 L34.8,22.62 L34.8,22.72 L34.8,22.72 Z M28,22.72 C28.5,22.72 28.7,23.02 28.7,23.32 C28.7,23.62 28.5,23.92 28,23.92 L26.5,23.92 L26.5,22.62 L28,22.72 L28,22.72 Z M26.5,25.02 L27.1,25.02 L28.7,26.92 L30.2,26.92 L28.4,24.92 C29.3,24.72 29.8,24.12 29.8,23.32 C29.8,22.32 29.1,21.62 28,21.62 L25.2,21.62 L25.2,26.92 L26.4,26.92 L26.5,25.02 Z M23.3,23.42 C23.3,23.82 23.1,24.12 22.6,24.12 L21,24.12 L21,22.72 L22.5,22.72 C23,22.72 23.3,23.02 23.3,23.42 L23.3,23.42 Z M19.8,21.62 L19.8,26.92 L21,26.92 L21,25.12 L22.6,25.12 C23.7,25.12 24.5,24.42 24.5,23.32 C24.5,22.32 23.8,21.52 22.7,21.52 L19.8,21.62 L19.8,21.62 Z M18,26.92 L19.5,26.92 L17.4,24.22 L19.5,21.62 L18,21.62 L16.7,23.32 L15.4,21.62 L13.9,21.62 L16,24.22 L13.9,26.82 L15.4,26.82 L16.7,25.12 L18,26.92 L18,26.92 Z M13.5,22.72 L13.5,21.62 L9.3,21.62 L9.3,26.92 L13.5,26.92 L13.5,25.82 L10.5,25.82 L10.5,24.72 L13.4,24.72 L13.4,23.62 L10.5,23.62 L10.5,22.62 L13.5,22.62 L13.5,22.72 L13.5,22.72 Z M37.8,13.32 L39.9,16.52 L41.4,16.52 L41.4,11.22 L40.2,11.22 L40.2,14.72 L39.9,14.22 L38,11.22 L36.4,11.22 L36.4,16.52 L37.6,16.52 L37.6,12.92 L37.8,13.32 L37.8,13.32 Z M32.6,13.22 L33,12.12 L33.4,13.22 L33.9,14.42 L32.1,14.42 L32.6,13.22 Z M34.7,16.52 L36,16.52 L33.7,11.22 L32.1,11.22 L29.8,16.52 L31.1,16.52 L31.6,15.42 L34.2,15.42 L34.7,16.52 Z M29.1,16.52 L29.6,15.42 L29.3,15.42 C28.4,15.42 27.9,14.82 27.9,13.92 L27.9,13.82 C27.9,12.92 28.4,12.32 29.3,12.32 L30.6,12.32 L30.6,11.22 L29.2,11.22 C27.6,11.22 26.7,12.32 26.7,13.82 L26.7,13.92 C26.7,15.52 27.6,16.52 29.1,16.52 Z M24.6,16.52 L25.8,16.52 L25.8,11.32 L24.6,11.32 L24.6,16.52 Z M22,12.32 C22.5,12.32 22.7,12.62 22.7,12.92 C22.7,13.22 22.5,13.52 22,13.52 L20.5,13.52 L20.5,12.22 L22,12.32 L22,12.32 Z M20.5,14.62 L21.1,14.62 L22.7,16.52 L24.2,16.52 L22.4,14.52 C23.3,14.32 23.8,13.72 23.8,12.92 C23.8,11.92 23.1,11.22 22,11.22 L19.2,11.22 L19.2,16.52 L20.4,16.52 L20.5,14.62 Z M18.3,12.32 L18.3,11.22 L14.1,11.22 L14.1,16.52 L18.3,16.52 L18.3,15.42 L15.3,15.42 L15.3,14.32 L18.2,14.32 L18.2,13.22 L15.3,13.22 L15.3,12.22 L18.3,12.22 L18.3,12.32 L18.3,12.32 Z M9.2,16.52 L10.3,16.52 L11.8,12.22 L11.8,16.52 L13,16.52 L13,11.22 L11,11.22 L9.8,14.82 L8.6,11.22 L6.6,11.22 L6.6,16.52 L7.8,16.52 L7.8,12.22 L9.2,16.52 Z M2.7,13.22 L3.1,12.12 L3.5,13.22 L4,14.42 L2.2,14.42 L2.7,13.22 L2.7,13.22 Z M4.8,16.52 L6.1,16.52 L3.8,11.22 L2.3,11.22 L0,16.52 L1.3,16.52 L1.8,15.42 L4.4,15.42 L4.8,16.52 Z" id="Shape" fill="#006FCF"></path>
        </g>
    </g>
</svg>

<svg xmlns="http://www.w3.org/2000/svg" width="45" height="36" fill-rule="nonzero"><path d="M44.9 19.862V.92H0v35h44.9V25.708c-.1 0 0-5.846 0-5.846" fill="#006fcf"/><path d="M39.4 17.82h3.4v-7.9h-3.7v1.1l-.7-1.1h-3.2v1.4l-.6-1.4h-5.9c-.2 0-.4.1-.6.1s-.3.1-.5.2-.3.1-.5.2v-.5H10.2l-.5 1.3-.5-1.3h-4v1.4l-.6-1.4H1.4L0 13.32v4.5h2.3l.4-1.1h.8l.4 1.1h17.6v-1l.7 1h4.9v-.6c.1.1.3.1.4.2s.3.1.4.2c.2.1.4.1.6.1h3.6l.4-1.1h.8l.4 1.1h4.9v-1l.8 1.1zm5.5 10v-7.4H17.4l-.7 1-.7-1H8v7.9h8l.7-1 .7 1h5v-1.7h-.2c.7 0 1.3-.1 1.8-.3v2.1h3.6v-1l.7 1h14.9c.6-.2 1.2-.3 1.7-.6z" fill="#fff"/><path d="M43.2 25.92h-2.7v1.1h2.6c1.1 0 1.8-.7 1.8-1.7s-.6-1.5-1.6-1.5h-1.2a.47.47 0 0 1-.5-.5.47.47 0 0 1 .5-.5h2.3l.5-1.1h-2.7c-1.1 0-1.8.7-1.8 1.6 0 1 .6 1.5 1.6 1.5h1.2a.47.47 0 0 1 .5.5c.1.4-.1.6-.5.6zm-4.9 0h-2.7v1.1h2.6c1.1 0 1.8-.7 1.8-1.7s-.6-1.5-1.6-1.5h-1.2a.47.47 0 0 1-.5-.5.47.47 0 0 1 .5-.5h2.3l.5-1.1h-2.7c-1.1 0-1.8.7-1.8 1.6 0 1 .6 1.5 1.6 1.5h1.2a.47.47 0 0 1 .5.5c.1.4-.2.6-.5.6zm-3.5-3.2v-1.1h-4.2v5.3h4.2v-1.1h-3v-1.1h2.9v-1.1h-2.9v-1h3v.1zm-6.8 0c.5 0 .7.3.7.6s-.2.6-.7.6h-1.5v-1.3l1.5.1zm-1.5 2.3h.6l1.6 1.9h1.5l-1.8-2c.9-.2 1.4-.8 1.4-1.6 0-1-.7-1.7-1.8-1.7h-2.8v5.3h1.2l.1-1.9zm-3.2-1.6c0 .4-.2.7-.7.7H21v-1.4h1.5c.5 0 .8.3.8.7zm-3.5-1.8v5.3H21v-1.8h1.6c1.1 0 1.9-.7 1.9-1.8 0-1-.7-1.8-1.8-1.8l-2.9.1zm-1.8 5.3h1.5l-2.1-2.7 2.1-2.6H18l-1.3 1.7-1.3-1.7h-1.5l2.1 2.6-2.1 2.6h1.5l1.3-1.7 1.3 1.8zm-4.5-4.2v-1.1H9.3v5.3h4.2v-1.1h-3v-1.1h2.9v-1.1h-2.9v-1h3v.1zm24.3-9.4l2.1 3.2h1.5v-5.3h-1.2v3.5l-.3-.5-1.9-3h-1.6v5.3h1.2v-3.6l.2.4zm-5.2-.1l.4-1.1.4 1.1.5 1.2h-1.8l.5-1.2zm2.1 3.3H36l-2.3-5.3h-1.6l-2.3 5.3h1.3l.5-1.1h2.6l.5 1.1zm-5.6 0l.5-1.1h-.3c-.9 0-1.4-.6-1.4-1.5v-.1c0-.9.5-1.5 1.4-1.5h1.3v-1.1h-1.4c-1.6 0-2.5 1.1-2.5 2.6v.1c0 1.6.9 2.6 2.4 2.6zm-4.5 0h1.2v-5.2h-1.2v5.2zm-2.6-4.2c.5 0 .7.3.7.6s-.2.6-.7.6h-1.5v-1.3l1.5.1zm-1.5 2.3h.6l1.6 1.9h1.5l-1.8-2c.9-.2 1.4-.8 1.4-1.6 0-1-.7-1.7-1.8-1.7h-2.8v5.3h1.2l.1-1.9zm-2.2-2.3v-1.1h-4.2v5.3h4.2v-1.1h-3v-1.1h2.9v-1.1h-2.9v-1h3v.1zm-9.1 4.2h1.1l1.5-4.3v4.3H13v-5.3h-2l-1.2 3.6-1.2-3.6h-2v5.3h1.2v-4.3l1.4 4.3zm-6.5-3.3l.4-1.1.4 1.1.5 1.2H2.2l.5-1.2zm2.1 3.3h1.3l-2.3-5.3H2.3L0 16.52h1.3l.5-1.1h2.6l.4 1.1z" fill="#006fcf"/></svg>
